src/assets/images/noBook.svg

<svg xmlns="http://www.w3.org/2000/svg" width="360" height="522" fill="none"><path fill="#EAEAEA" d="M0 0h360v522H0z"/><path fill="#202020" d="M141.975 217.956v20.304h-4.608v-8.388h-2.376v8.136h-4.572v-19.584h4.572v7.524h2.376v-7.992zm-15.984 4.824h-8.64v-3.816h8.64zm-4.32 11.016a.8.8 0 0 0-.576.252 28.5 28.5 0 0 1-4.86 4.5l-3.096-2.772q2.844-2.196 4.284-3.996t1.836-3.708h-5.148v-3.78h14.868v3.78h-5.328q-.252 2.088-1.332 4.068l.216.108.864-.648q.504-.36 1.044-.36.648 0 1.368.54l4.104 3.204-3.168 2.808-4.5-3.78q-.288-.216-.576-.216m-1.728 5.94h22.032v11.88h-4.752v-7.848h-17.28zm59.505-15.876H155.94v-4.032h23.508zm.252 12.24h-24.012v-3.96h4.788l-.972-6.228 4.968-.504.612 6.732h5.184l.648-6.732 4.968.504-1.008 6.228h4.824zm2.88 6.372v4.032h-29.736v-4.032h7.344v-4.932h4.752v4.932h5.544v-4.932h4.752v4.932zm29.218-24.516v31.968h-4.86v-31.968zm-14.076 14.076q.72 0 1.332.612l5.652 6.516-3.672 3.096-5.904-7.128q-.252-.252-.468-.252t-.396.216q-1.944 3.24-6.264 7.74l-3.672-3.024q4.032-3.816 5.832-7.164a14.9 14.9 0 0 0 1.836-7.2v-.684h-6.3v-4.032h17.388v4.032h-6.228v.864q0 4.068-1.548 7.488l.18.108.972-.72q.648-.468 1.26-.468m38.434-8.424v-1.8h-16.272v-3.24H240.8v8.1h-16.2v1.8h16.956v3.24H219.92v-8.1zM215.6 236.784v-3.492h29.736v3.492zm4.284 11.664v-5.112h16.812v-1.656H219.74v-3.312h21.42v8.028h-16.812v1.728h17.64v3.384h-19.044q-3.06 0-3.06-3.06M88.142 279.696v4.032H83.39v7.344h-4.824v-19.116h4.824v7.74zm-16.272-3.492H61.754v-3.852H71.87zm-11.736 15.768-3.312-2.88q3.528-2.016 5.292-3.816 1.8-1.8 2.16-3.672h-6.228v-3.78h17.568v3.78h-6.732a8.6 8.6 0 0 1-1.404 3.888l.216.108 1.008-.72q.612-.468 1.26-.468.576 0 1.332.432l5.328 3.456-3.312 2.952-5.724-4.068a1.47 1.47 0 0 0-.792-.252.96.96 0 0 0-.648.252q-2.016 2.232-6.012 4.788m16.2 6.624q.432 0 1.116.288l7.632 3.204-2.34 3.636-8.712-4.176a2.3 2.3 0 0 0-1.044-.252q-.576 0-1.152.288l-.18.108q-2.988 2.124-9 4.104l-2.304-3.636q4.68-1.296 7.02-2.664 2.376-1.404 2.952-3.06h-8.316v-3.96H83.39v3.96h-8.208q-.288 1.908-1.584 3.528l.216.072 1.008-.756q.9-.684 1.512-.684m16.294-20.412q0-2.844 2.772-4.428t8.352-1.584 8.352 1.584 2.772 4.428q0 2.88-2.772 4.464-2.736 1.584-8.352 1.584t-8.388-1.584q-2.736-1.584-2.736-4.464m17.1.144v-.324q0-2.34-5.976-2.34t-5.976 2.34v.324q0 2.34 5.976 2.34t5.976-2.34m-20.844 11.124v-3.888h29.736v3.888zm4.392 12.816v-5.688h16.452v-1.908H93.132v-3.492h21.24v8.64H97.884v1.944H115.2v3.564H96.336q-3.06 0-3.06-3.06m38.769-14.256-2.664-3.708q6.156-2.52 8.748-5.004t2.592-5.508v-1.332h4.932v1.476q0 3.96-2.268 6.768l.288.108 1.584-1.152q.828-.612 1.62-.612.72 0 1.404.432l8.172 4.68-2.7 3.744-9.468-5.76a2.14 2.14 0 0 0-1.116-.324q-.612 0-1.224.396h-.036q-1.62 1.476-3.996 2.844t-5.868 2.952m25.74 6.12h-12.456v10.98h-4.824v-10.98h-12.456v-4.068h29.736zm18.79-4.968q-2.556 0-4.536-.972-1.98-1.008-3.096-2.808-1.08-1.836-1.08-4.248t1.08-4.212q1.116-1.836 3.096-2.808 1.98-1.008 4.536-1.008 3.24 0 5.508 1.584 2.304 1.584 2.952 4.32h5.04v-7.056h4.824v17.928h-4.824v-6.912h-4.968q-.576 2.844-2.916 4.536-2.304 1.656-5.616 1.656m0-3.852q1.656 0 2.664-.9 1.008-.936 1.008-2.556v-1.44q0-1.62-1.008-2.52-1.008-.936-2.664-.936t-2.664.936q-1.008.9-1.008 2.52v1.44q0 1.62 1.008 2.556 1.008.9 2.664.9m21.384 17.316-3.24 2.844-3.816-4.68q-.18-.252-.396-.252t-.396.216q-1.584 2.376-4.32 5.076l-2.304-2.016v1.404h-9.216q-3.06 0-3.06-3.06v-10.836h4.032v3.672h4.212v-3.672h4.032v10.908q2.412-2.412 3.492-4.644a10.5 10.5 0 0 0 1.116-4.752v-1.548h4.32v1.8q0 2.916-1.152 5.508l.18.144.612-.504q.504-.432 1.044-.432.612 0 1.008.468zm-18.504-4.248h-4.212v3.42h4.212zm23.277-12.816-2.556-3.6q5.94-1.98 8.532-4.068 2.628-2.088 2.628-4.608v-.936h4.788v1.152q0 3.348-2.196 5.832l.36.108 1.548-1.08q.936-.648 1.8-.648a2.7 2.7 0 0 1 1.224.288l7.884 3.852-2.628 3.636-9.216-4.824a2.6 2.6 0 0 0-1.224-.324q-.612 0-1.224.36-1.62 1.26-3.996 2.412-2.34 1.152-5.724 2.448m25.596 1.368v3.888h-29.736v-3.888zm-8.928 5.436h4.752v12.708h-18.36q-3.06 0-3.06-3.06v-9.648h4.752v2.736H219.4zm0 6.408h-11.916v2.592H219.4zm38.146-26.82v31.968h-4.86v-31.968zm-8.136 18.36.576 3.96q-6.264 1.224-14.976 1.224h-3.384v-20.988h4.824v16.92q7.488-.108 12.96-1.116m42.538-2.736h-4.788v16.344h-4.824v-31.968h4.824v11.592h4.788zm-12.096 3.456.576 3.852q-2.916.54-6.372.864-3.42.288-8.208.288H262.5v-21.528h15.12v4.032h-10.296v13.5q7.416-.108 12.528-1.008m17.265 9.36q-1.62 0-2.412-.792-.756-.828-.756-2.088v-.72q0-1.26.756-2.052.792-.828 2.412-.828t2.376.828q.792.792.792 2.052v.72q0 1.26-.792 2.088-.756.792-2.376.792"/></svg>

<svg width="360" height="522" viewBox="0 0 360 522" fill="none" xmlns="http://www.w3.org/2000/svg">
<rect width="360" height="522" fill="#EAEAEA"/>
<path d="M141.975 217.956V238.26H137.367V229.872H134.991V238.008H130.419V218.424H134.991V225.948H137.367V217.956H141.975ZM125.991 222.78H117.351V218.964H125.991V222.78ZM121.671 233.796C121.455 233.796 121.263 233.88 121.095 234.048C119.607 235.776 117.987 237.276 116.235 238.548L113.139 235.776C115.035 234.312 116.463 232.98 117.423 231.78C118.383 230.58 118.995 229.344 119.259 228.072H114.111V224.292H128.979V228.072H123.651C123.483 229.464 123.039 230.82 122.319 232.14L122.535 232.248L123.399 231.6C123.735 231.36 124.083 231.24 124.443 231.24C124.875 231.24 125.331 231.42 125.811 231.78L129.915 234.984L126.747 237.792L122.247 234.012C122.055 233.868 121.863 233.796 121.671 233.796ZM119.943 239.736H141.975V251.616H137.223V243.768H119.943V239.736ZM179.448 223.86H155.94V219.828H179.448V223.86ZM179.7 236.1H155.688V232.14H160.476L159.504 225.912L164.472 225.408L165.084 232.14H170.268L170.916 225.408L175.884 225.912L174.876 232.14H179.7V236.1ZM182.58 242.472V246.504H152.844V242.472H160.188V237.54H164.94V242.472H170.484V237.54H175.236V242.472H182.58ZM211.798 217.956V249.924H206.938V217.956H211.798ZM197.722 232.032C198.202 232.032 198.646 232.236 199.054 232.644L204.706 239.16L201.034 242.256L195.13 235.128C194.962 234.96 194.806 234.876 194.662 234.876C194.518 234.876 194.386 234.948 194.266 235.092C192.97 237.252 190.882 239.832 188.002 242.832L184.33 239.808C187.018 237.264 188.962 234.876 190.162 232.644C191.386 230.388 191.998 227.988 191.998 225.444V224.76H185.698V220.728H203.086V224.76H196.858V225.624C196.858 228.336 196.342 230.832 195.31 233.112L195.49 233.22L196.462 232.5C196.894 232.188 197.314 232.032 197.722 232.032ZM236.156 223.608V221.808H219.884V218.568H240.8V226.668H224.6V228.468H241.556V231.708H219.92V223.608H236.156ZM215.6 236.784V233.292H245.336V236.784H215.6ZM219.884 248.448V243.336H236.696V241.68H219.74V238.368H241.16V246.396H224.348V248.124H241.988V251.508H222.944C220.904 251.508 219.884 250.488 219.884 248.448ZM88.1421 279.696V283.728H83.3901V291.072H78.5661V271.956H83.3901V279.696H88.1421ZM71.8701 276.204H61.7541V272.352H71.8701V276.204ZM60.1341 291.972L56.8221 289.092C59.1741 287.748 60.9381 286.476 62.1141 285.276C63.3141 284.076 64.0341 282.852 64.2741 281.604H58.0461V277.824H75.6141V281.604H68.8821C68.7381 282.996 68.2701 284.292 67.4781 285.492L67.6941 285.6L68.7021 284.88C69.1101 284.568 69.5301 284.412 69.9621 284.412C70.3461 284.412 70.7901 284.556 71.2941 284.844L76.6221 288.3L73.3101 291.252L67.5861 287.184C67.3221 287.016 67.0581 286.932 66.7941 286.932C66.5541 286.932 66.3381 287.016 66.1461 287.184C64.8021 288.672 62.7981 290.268 60.1341 291.972ZM76.3341 298.596C76.6221 298.596 76.9941 298.692 77.4501 298.884L85.0821 302.088L82.7421 305.724L74.0301 301.548C73.6941 301.38 73.3461 301.296 72.9861 301.296C72.6021 301.296 72.2181 301.392 71.8341 301.584L71.6541 301.692C69.6621 303.108 66.6621 304.476 62.6541 305.796L60.3501 302.16C63.4701 301.296 65.8101 300.408 67.3701 299.496C68.9541 298.56 69.9381 297.54 70.3221 296.436H62.0061V292.476H83.3901V296.436H75.1821C74.9901 297.708 74.4621 298.884 73.5981 299.964L73.8141 300.036L74.8221 299.28C75.4221 298.824 75.9261 298.596 76.3341 298.596ZM92.6278 278.184C92.6278 276.288 93.5518 274.812 95.3998 273.756C97.2478 272.7 100.032 272.172 103.752 272.172C107.472 272.172 110.256 272.7 112.104 273.756C113.952 274.812 114.876 276.288 114.876 278.184C114.876 280.104 113.952 281.592 112.104 282.648C110.28 283.704 107.496 284.232 103.752 284.232C100.008 284.232 97.2118 283.704 95.3638 282.648C93.5398 281.592 92.6278 280.104 92.6278 278.184ZM109.728 278.328V278.004C109.728 276.444 107.736 275.664 103.752 275.664C99.7678 275.664 97.7758 276.444 97.7758 278.004V278.328C97.7758 279.888 99.7678 280.668 103.752 280.668C107.736 280.668 109.728 279.888 109.728 278.328ZM88.8838 289.452V285.564H118.62V289.452H88.8838ZM93.2758 302.268V296.58H109.728V294.672H93.1318V291.18H114.372V299.82H97.8838V301.764H115.2V305.328H96.3358C94.2958 305.328 93.2758 304.308 93.2758 302.268ZM132.045 288.012L129.381 284.304C133.485 282.624 136.401 280.956 138.129 279.3C139.857 277.644 140.721 275.808 140.721 273.792V272.46H145.653V273.936C145.653 276.576 144.897 278.832 143.385 280.704L143.673 280.812L145.257 279.66C145.809 279.252 146.349 279.048 146.877 279.048C147.357 279.048 147.825 279.192 148.281 279.48L156.453 284.16L153.753 287.904L144.285 282.144C143.925 281.928 143.553 281.82 143.169 281.82C142.761 281.82 142.353 281.952 141.945 282.216H141.909C140.829 283.2 139.497 284.148 137.913 285.06C136.329 285.972 134.373 286.956 132.045 288.012ZM157.785 294.132H145.329V305.112H140.505V294.132H128.049V290.064H157.785V294.132ZM176.575 289.164C174.871 289.164 173.359 288.84 172.039 288.192C170.719 287.52 169.687 286.584 168.943 285.384C168.223 284.16 167.863 282.744 167.863 281.136C167.863 279.528 168.223 278.124 168.943 276.924C169.687 275.7 170.719 274.764 172.039 274.116C173.359 273.444 174.871 273.108 176.575 273.108C178.735 273.108 180.571 273.636 182.083 274.692C183.619 275.748 184.603 277.188 185.035 279.012H190.075V271.956H194.899V289.884H190.075V282.972H185.107C184.723 284.868 183.751 286.38 182.191 287.508C180.655 288.612 178.783 289.164 176.575 289.164ZM176.575 285.312C177.679 285.312 178.567 285.012 179.239 284.412C179.911 283.788 180.247 282.936 180.247 281.856V280.416C180.247 279.336 179.911 278.496 179.239 277.896C178.567 277.272 177.679 276.96 176.575 276.96C175.471 276.96 174.583 277.272 173.911 277.896C173.239 278.496 172.903 279.336 172.903 280.416V281.856C172.903 282.936 173.239 283.788 173.911 284.412C174.583 285.012 175.471 285.312 176.575 285.312ZM197.959 302.628L194.719 305.472L190.903 300.792C190.783 300.624 190.651 300.54 190.507 300.54C190.363 300.54 190.231 300.612 190.111 300.756C189.055 302.34 187.615 304.032 185.791 305.832L183.487 303.816V305.22H174.271C172.231 305.22 171.211 304.2 171.211 302.16V291.324H175.243V294.996H179.455V291.324H183.487V302.232C185.095 300.624 186.259 299.076 186.979 297.588C187.723 296.1 188.095 294.516 188.095 292.836V291.288H192.415V293.088C192.415 295.032 192.031 296.868 191.263 298.596L191.443 298.74L192.055 298.236C192.391 297.948 192.739 297.804 193.099 297.804C193.507 297.804 193.843 297.96 194.107 298.272L197.959 302.628ZM179.455 298.38H175.243V301.8H179.455V298.38ZM202.732 285.564L200.176 281.964C204.136 280.644 206.98 279.288 208.708 277.896C210.46 276.504 211.336 274.968 211.336 273.288V272.352H216.124V273.504C216.124 275.736 215.392 277.68 213.928 279.336L214.288 279.444L215.836 278.364C216.46 277.932 217.06 277.716 217.636 277.716C218.068 277.716 218.476 277.812 218.86 278.004L226.744 281.856L224.116 285.492L214.9 280.668C214.492 280.452 214.084 280.344 213.676 280.344C213.268 280.344 212.86 280.464 212.452 280.704C211.372 281.544 210.04 282.348 208.456 283.116C206.896 283.884 204.988 284.7 202.732 285.564ZM228.328 286.932V290.82H198.592V286.932H228.328ZM219.4 292.368H224.152V305.076H205.792C203.752 305.076 202.732 304.056 202.732 302.016V292.368H207.484V295.104H219.4V292.368ZM219.4 298.776H207.484V301.368H219.4V298.776ZM257.546 271.956V303.924H252.686V271.956H257.546ZM249.41 290.316L249.986 294.276C245.81 295.092 240.818 295.5 235.01 295.5H231.626V274.512H236.45V291.432C241.442 291.36 245.762 290.988 249.41 290.316ZM291.948 287.58H287.16V303.924H282.336V271.956H287.16V283.548H291.948V287.58ZM279.852 291.036L280.428 294.888C278.484 295.248 276.36 295.536 274.056 295.752C271.776 295.944 269.04 296.04 265.848 296.04H262.5V274.512H277.62V278.544H267.324V292.044C272.268 291.972 276.444 291.636 279.852 291.036ZM297.117 300.396C296.037 300.396 295.233 300.132 294.705 299.604C294.201 299.052 293.949 298.356 293.949 297.516V296.796C293.949 295.956 294.201 295.272 294.705 294.744C295.233 294.192 296.037 293.916 297.117 293.916C298.197 293.916 298.989 294.192 299.493 294.744C300.021 295.272 300.285 295.956 300.285 296.796V297.516C300.285 298.356 300.021 299.052 299.493 299.604C298.989 300.132 298.197 300.396 297.117 300.396Z" fill="#202020"/>
</svg>
